X:4010
T:Dever The Dancer
T:Humours Of Whiskey, The
R:Slipjig
C:Trad.
O:Ireland
M:9/8
L:1/8
Q:1/8=180
K:Emin
"Em"BEE BEF G2A|BEE BAG "D"FGA|"Em"BEE BEF G2A|"G"B^cd "Em"ABG "Bm"FED:|
|:"G"ded "Am"cAF "Em"G2A|"G"ded "Bm"def "Em"gfe|"G"ded "Am"cAF "Em"G2A|"G"B^cd "Em"ABG "Bm"FED:|

